X:1
T:Sister Susie's Sewing Shirts
M:2/4
L:1/8
K:Eb
 Bc BG| Bc BG| Bc BA| G B2 B| cd cA| cd cA| cd cA| F3 G| Bc BG| Bc Bc|\
 dc BG| F d2 G| G=A Bc| dB GF| BB cF| B3 B| cA AB| AA cc| cF FG| A3 A|\
 =A^G AG| =AB cd| ec GA| B4| ed cd| ed cB| A4| G3 G| GF =EF| GF =EF|\
 GF =EF| c3 c| dc Bc| dB cd| ed cB| AG ^FG| dd =Bc| dc =Bc| GB GF|\
 E2 z2|
